public/images/logos/cosmoparis.svg

<svg width="1022" height="159" viewBox="0 0 1022 159" fill="none" xmlns="http://www.w3.org/2000/svg">
<path d="M23.0655 3.24122C-6.77141 16.9678 -7.91269 59.9458 21.1091 74.4897C34.9677 81.353 53.8808 79.5557 64.9675 70.2411L70.3481 65.8288L65.6198 60.7628C60.2395 55.0434 57.7937 54.5533 54.8589 58.1482C51.435 62.2336 41.0002 64.1948 33.6632 62.2336C20.9458 58.8019 13.7723 41.6434 19.8046 28.8971C26.0003 15.6603 37.2503 12.229 51.1089 19.0923L60.0762 23.5045L64.4785 17.9484C66.761 15.0069 68.7175 11.7386 68.7175 10.9218C68.7175 9.94093 64.8046 7.16302 59.9133 4.71167C49.1524 -1.00744 33.5003 -1.49759 23.0655 3.24122ZM130.674 4.05824C121.707 8.14332 114.696 15.3338 111.109 24.1583C108.011 31.3484 108.011 47.5264 110.783 54.5533C124.152 86.419 173.065 86.419 186.435 54.5533C189.695 46.3825 189.206 30.2046 185.13 21.8705C175.837 2.58749 151.054 -5.58328 130.674 4.05824ZM154.152 16.4777C171.435 21.3801 177.304 43.7679 164.424 56.1873C157.902 62.3972 151.054 64.5217 143.391 62.3972C122.033 56.5142 120.076 26.2828 140.456 17.1311C146.489 14.5168 147.304 14.5168 154.152 16.4777ZM244.315 2.91405C237.467 6.18272 232.902 12.0657 231.598 19.0923C228.989 32.8192 235.022 39.5192 255.402 46.3825C269.424 51.1216 270.891 51.9386 271.38 56.024C272.358 65.0118 256.054 66.319 243.989 58.3118L237.956 54.3897L233.717 59.7825C231.272 62.8873 229.315 65.9921 229.315 66.8091C229.315 67.6264 233.065 70.2411 237.794 72.8557C249.37 79.2289 265.348 80.3727 275.293 75.4703C284.261 71.2214 288.011 64.8482 288.011 54.3897C288.011 41.4801 283.283 37.3947 259.478 30.0413C250.348 27.2631 249.696 26.7726 249.696 22.1971C249.696 15.1705 256.217 13.046 266.489 16.9678C270.728 18.6022 275.293 20.2362 276.598 20.7263C278.065 21.2168 280.511 19.2556 282.793 15.4971C286.38 9.94124 286.543 9.61406 283.608 7.3263C274.478 0.463004 254.098 -1.98804 244.315 2.91405ZM480.239 2.26062C456.108 11.2484 446.977 40.3362 461.325 61.7434C474.205 80.8629 503.227 84.4581 521.162 69.0972C530.946 60.9264 534.857 52.1019 534.857 39.3556C534.857 23.8314 527.193 10.7583 513.987 3.89465C507.141 0.299723 487.738 -0.517599 480.239 2.26062ZM504.859 18.4389C526.705 29.7144 519.368 62.8873 494.913 62.8873C490.347 62.8873 485.618 61.7434 483.009 59.9458C466.542 49.1604 469.641 22.0338 487.903 16.4777C495.237 14.3532 497.195 14.5171 504.859 18.4389ZM700.509 3.4045C698.554 6.99974 669.532 75.4703 669.532 76.2874C669.532 76.6142 673.443 76.9411 678.172 76.9411H686.815L692.684 60.5996H725.129L731.978 76.9411H740.617C748.119 76.9411 749.095 76.6142 748.281 74.1629C747.628 72.6921 740.456 55.5339 732.304 36.2508L717.304 0.953457L709.802 0.463003C703.609 -0.0271447 701.977 0.62659 700.509 3.4045ZM717.465 42.1339C718.606 45.7288 718.283 45.8924 708.826 45.8924C697.739 45.8924 697.901 47.1995 705.4 30.3678L709.152 22.1971L712.737 30.3678C714.695 34.7801 716.816 40.1726 717.465 42.1339ZM978.499 2.26062C969.857 6.3457 965.781 12.2287 964.966 22.1971C964.313 30.6947 964.475 31.3484 969.857 36.741C973.932 40.8264 978.823 43.441 987.627 46.0556C1004.91 51.1216 1009.48 56.024 1001.81 61.2533C996.432 65.0118 989.259 64.5214 979.476 59.4557L970.671 55.207L966.107 60.7628C963.661 63.7043 962.032 66.8094 962.52 67.6264C962.846 68.2799 967.084 70.7312 971.651 73.1826C982.902 78.902 1000.35 80.2091 1008.66 75.7972C1016.16 71.8751 1021.7 63.3775 1021.7 55.5336C1021.7 42.4604 1016.16 37.2311 996.27 31.3484C983.551 27.5899 980.129 24.9753 981.758 19.9096C983.716 13.6994 995.782 13.5362 1005.89 19.4192C1010.45 22.1971 1010.62 22.0335 1014.53 17.2947C1016.65 14.5168 1018.44 11.4117 1018.44 10.4314C1018.44 3.56778 988.768 -2.47819 978.499 2.26062ZM333.663 76.9411H349.966V28.7338L359.75 43.441C365.129 51.4485 370.184 58.1485 371.163 58.1485C372.139 58.1485 377.194 51.4485 382.576 43.441L392.357 28.7335V76.9411H410.292V1.77047H390.889L371.325 33.1461L366.922 25.9556C364.479 22.1971 360.077 15.0069 357.142 10.2681L351.599 1.77047H333.663V76.9411ZM579.858 76.9411H597.794V54.0631H608.88C629.259 54.0631 640.184 44.5849 640.184 26.9362C640.184 16.8045 635.455 8.79736 627.139 4.71197C622.575 2.42421 617.193 1.77047 600.729 1.77047H579.858V76.9411ZM619.802 20.563C622.087 22.6875 623.881 25.9556 623.881 27.9168C623.881 29.7144 622.087 33.1461 619.802 35.2702C616.544 38.7022 614.259 39.3556 606.76 39.3556H597.794V16.478H606.76C614.259 16.478 616.544 17.1314 619.802 20.563ZM791.815 76.9411H808.118V54.0631H815.129C821.813 54.0631 822.14 54.3897 829.315 65.502L836.652 76.9411H857.196L848.391 64.1948L839.422 51.6118L846.433 45.0753C856.869 35.4338 858.337 21.2168 850.182 10.7583C844.315 3.24122 838.119 1.77047 813.826 1.77047H791.815V76.9411ZM833.879 19.0923C836.326 20.7263 837.466 23.1777 837.466 27.0998C837.466 35.107 832.9 37.7216 819.205 37.7216H808.118V16.4777H819.205C826.542 16.4777 831.432 17.2947 833.879 19.0923ZM901.053 76.9411H917.356V1.77047H901.053V76.9411ZM534.204 130.051V158.648H550.51C565.672 158.648 566.813 158.485 566.813 155.38C566.813 152.439 565.672 152.112 553.771 152.112H540.727V126.782C540.727 102.597 540.565 101.453 537.465 101.453C534.369 101.453 534.204 102.597 534.204 130.051ZM576.759 105.702C572.357 109.297 571.707 110.931 571.707 117.795C571.707 123.187 572.848 126.946 575.291 130.214C580.835 137.895 601.705 158.648 603.499 158.648C606.76 158.648 621.108 142.797 618.987 141.49C617.846 140.836 614.259 142.96 610.183 147.046L603.172 153.909L589.966 140.019C575.13 124.168 572.683 118.448 577.738 111.421C582.955 104.558 589.804 104.885 597.303 112.402L603.499 118.612L609.695 112.402C617.193 104.885 623.716 104.231 628.771 110.768C631.379 114.036 632.032 116.651 631.379 120.246C630.074 125.965 627.139 129.724 627.139 125.312C627.139 119.265 623.063 124.168 622.575 130.704L622.087 137.731L629.097 136.587C637.087 135.28 637.575 134.953 636.27 132.665C635.62 131.685 633.988 131.521 632.52 132.012C630.4 132.829 630.4 132.339 632.847 128.58C634.476 126.129 635.782 121.226 635.782 117.468C635.782 111.912 634.802 109.787 630.565 106.029C624.042 100.146 618.011 100.146 609.856 106.029L603.499 110.768L597.141 106.029C589.316 100.309 583.281 100.146 576.759 105.702ZM649.968 103.414C649.968 104.558 654.693 117.304 660.239 131.685C668.553 153.092 670.999 157.994 673.77 158.321C675.89 158.648 677.684 157.668 678.498 155.87C683.392 143.614 698.88 102.761 698.88 102.107C698.88 101.617 697.248 101.453 695.293 101.78C692.519 102.107 690.402 106.192 683.553 124.658C678.825 136.914 674.749 147.373 674.261 147.863C673.77 148.353 669.532 138.058 664.803 125.148C657.793 106.029 655.511 101.453 653.064 101.453C651.435 101.453 649.968 102.434 649.968 103.414ZM708.173 102.597C707.52 103.087 707.032 115.997 707.032 131.195V158.648H724.15C740.129 158.648 741.27 158.485 741.27 155.38C741.27 152.439 740.129 152.112 728.228 152.112H715.183V132.502H726.596C736.868 132.502 738.009 132.175 738.009 129.234C738.009 126.292 736.868 125.965 726.596 125.965H715.183V107.99H728.228C740.129 107.99 741.27 107.663 741.27 104.721C741.27 101.617 740.129 101.453 725.294 101.453C716.489 101.453 708.661 101.944 708.173 102.597ZM800.455 107.499C795.076 120.736 782.031 155.38 782.031 157.014C782.031 157.831 783.337 158.648 785.128 158.648C787.248 158.648 789.042 156.197 791.162 149.987L794.259 141.49L804.695 140.999C816.435 140.509 817.576 141.163 821.325 150.968C823.119 155.543 825.074 157.994 827.521 158.321C829.315 158.648 830.944 158.485 830.944 158.158C830.944 157.668 828.497 150.804 825.401 142.96C822.304 134.953 817.576 122.37 814.641 114.853C808.606 99.1653 804.857 97.2044 800.455 107.499ZM811.053 123.187C813.009 128.58 814.641 133.482 814.641 134.299C814.641 135.116 810.565 135.77 805.51 135.77C800.455 135.77 796.705 135.116 797.032 134.463C797.358 133.809 799.314 128.253 801.434 122.207C803.716 116.161 805.998 111.748 806.489 112.402C807.139 113.219 809.098 117.958 811.053 123.187ZM847.738 105.538C839.748 110.441 834.205 120.573 834.205 130.214C834.205 138.058 839.91 149.987 845.78 154.236C854.911 160.773 870.238 160.609 877.575 153.582L881.489 149.987V154.236C881.489 157.504 882.303 158.648 884.747 158.648C887.847 158.648 888.008 157.504 888.008 143.941V129.234H877.41C867.956 129.234 866.815 129.56 866.815 132.502C866.815 135.28 867.956 135.77 874.152 135.77C880.998 135.77 881.489 136.097 881.489 139.856C881.489 149.333 867.791 155.87 856.378 152.112C835.346 145.248 837.14 112.729 858.825 107.5C864.856 106.029 874.64 109.297 877.575 113.709C879.204 116.161 881.812 117.795 884.259 117.795C888.173 117.795 888.173 117.795 885.4 113.055C878.554 101.617 860.454 97.8581 847.738 105.538ZM914.913 103.414C914.586 104.558 909.693 117.141 904.314 131.358C898.933 145.575 894.531 157.668 894.531 157.994C894.531 158.485 896.163 158.648 897.954 158.321C900.565 157.994 902.356 155.38 904.803 149.17L908.064 140.509L930.89 141.49L934.151 149.987C936.433 156.197 938.227 158.648 940.347 158.648C942.141 158.648 943.443 157.668 943.282 156.524C943.282 155.543 938.715 142.797 933.171 128.416C924.532 106.355 922.411 102.27 919.315 101.78C917.356 101.453 915.401 102.27 914.913 103.414ZM928.769 135.28C928.769 135.607 924.693 135.77 919.803 135.77C914.913 135.77 910.834 135.116 910.834 134.299C910.834 132.829 913.769 124.168 917.356 115.343L919.315 110.441L924.041 122.697C926.649 129.397 928.769 135.116 928.769 135.28ZM953.227 130.051C953.227 157.504 953.389 158.648 956.488 158.648C959.585 158.648 959.75 157.504 959.75 130.051C959.75 102.597 959.585 101.453 956.488 101.453C953.389 101.453 953.227 102.597 953.227 130.051ZM974.421 129.887C974.421 157.341 974.585 158.648 977.682 158.648C980.617 158.648 980.943 157.341 981.27 136.26L981.758 113.709L995.782 135.77C1005.73 151.785 1010.62 157.994 1013.23 158.321C1016.81 158.812 1016.81 158.812 1016.81 130.214C1016.81 102.761 1016.65 101.453 1013.55 101.453C1010.62 101.453 1010.29 102.761 1009.96 123.841L1009.48 146.392L995.455 124.331C985.51 108.317 980.617 102.107 978.008 101.78C974.421 101.29 974.421 101.29 974.421 129.887Z" fill="black"/>
</svg>

<svg xmlns="http://www.w3.org/2000/svg" width="1022" height="159" fill="none"><path fill="#000" d="M23.066 3.241C-6.771 16.968-7.913 59.946 21.108 74.49c13.859 6.863 32.772 5.066 43.859-4.249l5.38-4.412-4.728-5.066c-5.38-5.72-7.826-6.21-10.761-2.615-3.424 4.086-13.859 6.047-21.196 4.086-12.717-3.432-19.89-20.59-13.858-33.337C26 15.66 37.25 12.23 51.109 19.092l8.967 4.413 4.402-5.557c2.283-2.941 4.24-6.21 4.24-7.026 0-.981-3.913-3.759-8.805-6.21-10.76-5.72-26.413-6.21-36.847-1.47Zm107.608.817c-8.967 4.085-15.978 11.276-19.565 20.1-3.098 7.19-3.098 23.368-.326 30.395 13.369 31.866 62.282 31.866 75.652 0 3.26-8.17 2.771-24.348-1.305-32.682-9.293-19.284-34.076-27.454-54.456-17.813Zm23.478 12.42c17.283 4.902 23.152 27.29 10.272 39.71-6.522 6.21-13.37 8.334-21.033 6.21-21.358-5.884-23.315-36.115-2.935-45.267 6.033-2.614 6.848-2.614 13.696-.653Zm90.163-13.564c-6.848 3.269-11.413 9.152-12.717 16.178-2.609 13.727 3.424 20.427 23.804 27.29 14.022 4.74 15.489 5.557 15.978 9.642.978 8.988-15.326 10.295-27.391 2.288l-6.033-3.922-4.239 5.392c-2.445 3.105-4.402 6.21-4.402 7.027 0 .817 3.75 3.432 8.479 6.047 11.576 6.373 27.554 7.517 37.499 2.614 8.968-4.249 12.718-10.622 12.718-21.08 0-12.91-4.728-16.995-28.533-24.349-9.13-2.778-9.782-3.268-9.782-7.844 0-7.026 6.521-9.151 16.793-5.23 4.239 1.635 8.804 3.27 10.109 3.76 1.467.49 3.913-1.471 6.195-5.23 3.587-5.556 3.75-5.883.815-8.17-9.13-6.864-29.51-9.315-39.293-4.413Zm235.924-.653c-24.131 8.987-33.262 38.075-18.914 59.482 12.88 19.12 41.902 22.715 59.837 7.354 9.784-8.17 13.695-16.995 13.695-29.741 0-15.525-7.664-28.598-20.87-35.461C507.141.3 487.738-.518 480.239 2.26Zm24.62 16.178c21.846 11.275 14.509 44.448-9.946 44.448-4.566 0-9.295-1.144-11.904-2.941-16.467-10.786-13.368-37.912 4.894-43.468 7.334-2.125 9.292-1.96 16.956 1.96Zm195.65-15.034C698.554 7 669.532 75.47 669.532 76.287c0 .327 3.911.654 8.64.654h8.643l5.869-16.341h32.445l6.849 16.341h8.639c7.502 0 8.478-.327 7.664-2.778-.653-1.47-7.825-18.63-15.977-37.912l-15-35.298-7.502-.49c-6.193-.49-7.825.164-9.293 2.942Zm16.956 38.729c1.141 3.595.818 3.758-8.639 3.758-11.087 0-10.925 1.307-3.426-15.524l3.752-8.17 3.585 8.17c1.958 4.412 4.079 9.805 4.728 11.766ZM978.499 2.26c-8.642 4.085-12.718 9.968-13.533 19.936-.653 8.498-.491 9.151 4.891 14.544 4.075 4.085 8.966 6.7 17.77 9.315 17.283 5.066 21.853 9.968 14.183 15.197-5.378 3.759-12.551 3.268-22.334-1.797l-8.805-4.249-4.564 5.556c-2.446 2.941-4.075 6.046-3.587 6.863.326.654 4.564 3.105 9.131 5.557 11.251 5.719 28.699 7.026 37.009 2.614 7.5-3.922 13.04-12.42 13.04-20.263 0-13.074-5.54-18.303-25.43-24.186-12.719-3.758-16.141-6.373-14.512-11.438 1.958-6.21 14.024-6.374 24.132-.49 4.56 2.777 4.73 2.613 8.64-2.125 2.12-2.778 3.91-5.883 3.91-6.864 0-6.863-29.672-12.91-39.941-8.17ZM333.663 76.94h16.303V28.734l9.784 14.707c5.379 8.008 10.434 14.707 11.413 14.707.976 0 6.031-6.7 11.413-14.707l9.781-14.708v48.208h17.935V1.771h-19.403l-19.564 31.375-4.403-7.19c-2.443-3.759-6.845-10.95-9.78-15.688l-5.543-8.498h-17.936v75.171Zm246.195 0h17.936V54.063h11.086c20.379 0 31.304-9.478 31.304-27.127 0-10.131-4.729-18.139-13.045-22.224-4.564-2.288-9.946-2.942-26.41-2.942h-20.871v75.171Zm39.944-56.378c2.285 2.125 4.079 5.393 4.079 7.354 0 1.797-1.794 5.23-4.079 7.353-3.258 3.432-5.543 4.086-13.042 4.086h-8.966V16.478h8.966c7.499 0 9.784.653 13.042 4.085Zm172.013 56.378h16.303V54.063h7.011c6.684 0 7.011.327 14.186 11.439l7.337 11.44h20.544l-8.805-12.747-8.969-12.583 7.011-6.537c10.436-9.641 11.904-23.858 3.749-34.317-5.867-7.517-12.063-8.988-36.356-8.988h-22.011v75.171Zm42.064-57.849c2.447 1.634 3.587 4.086 3.587 8.008 0 8.007-4.566 10.622-18.261 10.622h-11.087V16.478h11.087c7.337 0 12.227.817 14.674 2.614Zm67.174 57.85h16.303V1.77h-16.303v75.171ZM534.204 130.05v28.597h16.306c15.162 0 16.303-.163 16.303-3.268 0-2.941-1.141-3.268-13.042-3.268h-13.044v-25.33c0-24.185-.162-25.329-3.262-25.329-3.096 0-3.261 1.144-3.261 28.598Zm42.555-24.349c-4.402 3.595-5.052 5.229-5.052 12.093 0 5.392 1.141 9.151 3.584 12.419 5.544 7.681 26.414 28.434 28.208 28.434 3.261 0 17.609-15.851 15.488-17.158-1.141-.654-4.728 1.47-8.804 5.556l-7.011 6.863-13.206-13.89c-14.836-15.851-17.283-21.571-12.228-28.598 5.217-6.863 12.066-6.536 19.565.981l6.196 6.21 6.196-6.21c7.498-7.517 14.021-8.171 19.076-1.634 2.608 3.268 3.261 5.883 2.608 9.478-1.305 5.719-4.24 9.478-4.24 5.066 0-6.047-4.076-1.144-4.564 5.392l-.488 7.027 7.01-1.144c7.99-1.307 8.478-1.634 7.173-3.922-.65-.98-2.282-1.144-3.75-.653-2.12.817-2.12.327.327-3.432 1.629-2.451 2.935-7.354 2.935-11.112 0-5.556-.98-7.681-5.217-11.439-6.523-5.883-12.554-5.883-20.709 0l-6.357 4.739-6.358-4.739c-7.825-5.72-13.86-5.883-20.382-.327Zm73.209-2.288c0 1.144 4.725 13.89 10.271 28.271 8.314 21.407 10.76 26.309 13.531 26.636 2.12.327 3.914-.653 4.728-2.451 4.894-12.256 20.382-53.109 20.382-53.763 0-.49-1.632-.654-3.587-.327-2.774.327-4.891 4.412-11.74 22.878-4.728 12.256-8.804 22.715-9.292 23.205-.491.49-4.729-9.805-9.458-22.715-7.01-19.119-9.292-23.695-11.739-23.695-1.629 0-3.096.981-3.096 1.961Zm58.205-.817c-.653.49-1.141 13.4-1.141 28.598v27.453h17.118c15.979 0 17.12-.163 17.12-3.268 0-2.941-1.141-3.268-13.042-3.268h-13.045v-19.61h11.413c10.272 0 11.413-.327 11.413-3.268 0-2.942-1.141-3.269-11.413-3.269h-11.413V107.99h13.045c11.901 0 13.042-.327 13.042-3.269 0-3.104-1.141-3.268-15.976-3.268-8.805 0-16.633.491-17.121 1.144Zm92.282 4.902c-5.379 13.237-18.424 47.881-18.424 49.515 0 .817 1.306 1.634 3.097 1.634 2.12 0 3.914-2.451 6.034-8.661l3.097-8.497 10.436-.491c11.74-.49 12.881.164 16.63 9.969 1.794 4.575 3.749 7.026 6.196 7.353 1.794.327 3.423.164 3.423-.163 0-.49-2.447-7.354-5.543-15.198-3.097-8.007-7.825-20.59-10.76-28.107-6.035-15.688-9.784-17.649-14.186-7.354Zm10.598 15.688c1.956 5.393 3.588 10.295 3.588 11.112 0 .817-4.076 1.471-9.131 1.471-5.055 0-8.805-.654-8.478-1.307.326-.654 2.282-6.21 4.402-12.256 2.282-6.046 4.564-10.459 5.055-9.805.65.817 2.609 5.556 4.564 10.785Zm36.685-17.649c-7.99 4.903-13.533 15.035-13.533 24.676 0 7.844 5.705 19.773 11.575 24.022 9.131 6.537 24.458 6.373 31.795-.654l3.914-3.595v4.249c0 3.268.814 4.412 3.258 4.412 3.1 0 3.261-1.144 3.261-14.707v-14.707H877.41c-9.454 0-10.595.326-10.595 3.268 0 2.778 1.141 3.268 7.337 3.268 6.846 0 7.337.327 7.337 4.086 0 9.477-13.698 16.014-25.111 12.256-21.032-6.864-19.238-39.383 2.447-44.612 6.031-1.471 15.815 1.797 18.75 6.209 1.629 2.452 4.237 4.086 6.684 4.086 3.914 0 3.914 0 1.141-4.74-6.846-11.438-24.946-15.197-37.662-7.517Zm67.175-2.124c-.327 1.144-5.22 13.727-10.599 27.944-5.381 14.217-9.783 26.31-9.783 26.636 0 .491 1.632.654 3.423.327 2.611-.327 4.402-2.941 6.849-9.151l3.261-8.661 22.826.981 3.261 8.497c2.282 6.21 4.076 8.661 6.196 8.661 1.794 0 3.096-.98 2.935-2.124 0-.981-4.567-13.727-10.111-28.108-8.639-22.061-10.76-26.146-13.856-26.636-1.959-.327-3.914.49-4.402 1.634Zm13.856 31.866c0 .327-4.076.49-8.966.49s-8.969-.654-8.969-1.471c0-1.47 2.935-10.131 6.522-18.956l1.959-4.902 4.726 12.256c2.608 6.7 4.728 12.419 4.728 12.583Zm24.458-5.229c0 27.453.162 28.597 3.261 28.597 3.097 0 3.262-1.144 3.262-28.597 0-27.454-.165-28.598-3.262-28.598-3.099 0-3.261 1.144-3.261 28.598Zm21.194-.164c0 27.454.164 28.761 3.261 28.761 2.935 0 3.261-1.307 3.588-22.388l.488-22.551 14.024 22.061c9.948 16.015 14.838 22.224 17.448 22.551 3.58.491 3.58.491 3.58-28.107 0-27.453-.16-28.761-3.26-28.761-2.93 0-3.26 1.308-3.59 22.388l-.48 22.551-14.025-22.061c-9.945-16.014-14.838-22.224-17.447-22.551-3.587-.49-3.587-.49-3.587 28.107Z"/></svg>
